icons/shield_us_ok_2.svg

<svg width="20" height="20" version="1.0" xmlns="http://www.w3.org/2000/svg">
 <rect style="fill:#fff;stroke:#000" width="19" height="19" x=".5" y=".5" rx="1.5" ry="1.5"/>
 <path style="fill:none;stroke:#000;stroke-width:.41664;stroke-miterlimit:3.86369" d="m 17.577149,2.5831876 v 1.0832793 l 0.916613,3.2497617 V 11.41591 l -1.416586,-0.499948 -0.916598,0.249974 -0.499963,0.333307 -1.166586,-0.583281 -0.749947,0.41664 -0.83328,-0.499973 L 12.410829,10.99927 11.994204,10.749296 11.494242,10.99927 9.9943479,10.332656 9.7443483,9.8326831 9.4943747,9.999349 8.9110943,9.8326831 8.7444279,9.6660422 8.4944543,9.9160163 7.6611743,9.4160431 7.5778411,9.0827363 V 3.9997738 H 1.4116004 V 2.5831876 Z"/>
</svg>

<svg width="20" height="20" version="1.0" xmlns="http://www.w3.org/2000/svg">
 <rect style="fill:#fff;stroke:#000" width="19" height="19" x=".5" y=".5" rx="1.5" ry="1.5"/>
 <path style="fill:none;stroke:#000;stroke-width:.41664;stroke-miterlimit:3.86369" d="M17.577 2.583v1.083l.917 3.25v4.5l-1.417-.5-.916.25-.5.333-1.167-.583-.75.417-.833-.5-.5.166-.417-.25-.5.25-1.5-.666-.25-.5-.25.166-.583-.166-.167-.167-.25.25-.833-.5-.083-.333V4H1.412V2.583Z"/>
</svg>
